_site/img/fire-hdx-8.9.svg

<svg xmlns="http://www.w3.org/2000/svg" viewBox="0 0 580 398" enable-background="new 0 0 580 398"><style type="text/css">.st0{fill:none;} .st1{opacity:0.2;} .st2{fill:#545454;} .st3{fill:#333333;} .st4{fill:#1A1A1A;} .st5{fill:#4C7070;} .st6{fill:#474747;}</style><path class="st0" d="M559.3 390.1h-532.8c-11.4 0-20.7-9.2-20.7-20.7v-348.2c0-11.5 9.2-20.7 20.7-20.7h532.9c11.4 0 20.7 9.2 20.7 20.7v348.3c-.1 11.3-9.4 20.6-20.8 20.6z"/><path d="M553.1 397.6h-532.9c-11.4 0-20.7-9.2-20.7-20.7v-348.2c0-11.5 9.3-20.7 20.7-20.7h532.9c11.4 0 20.7 9.2 20.7 20.7v348.3c-.1 11.3-9.3 20.6-20.7 20.6z" class="st1"/><path class="st2" d="M559.3 390.1h-532.8c-11.4 0-20.7-9.2-20.7-20.7v-348.2c0-11.5 9.2-20.7 20.7-20.7h532.9c11.4 0 20.7 9.2 20.7 20.7v348.3c-.1 11.3-9.4 20.6-20.8 20.6z"/><path class="st3" d="M26.5 387.6c-10 0-18.2-8.1-18.2-18.2v-348.2c0-10.1 8.1-18.2 18.2-18.2h532.9c10 0 18.2 8.1 18.2 18.2v348.3c0 10-8.1 18.2-18.2 18.2h-532.9z"/><path class="st4" d="M26.5 383.8c-7.9 0-14.4-6.5-14.4-14.4v-348.2c0-7.9 6.5-14.4 14.4-14.4h532.9c7.9 0 14.4 6.5 14.4 14.4v348.3c0 7.9-6.5 14.4-14.4 14.4h-532.9z"/><path d="M53.6 47h478.6v299.8h-478.6z"/><circle class="st5" cx="292.9" cy="26.7" r="2.8"/><path class="st6" d="M292.9 25.4c.7 0 1.3.6 1.3 1.3s-.6 1.3-1.3 1.3-1.3-.6-1.3-1.3.6-1.3 1.3-1.3m0-3.1c-2.4 0-4.4 2-4.4 4.4s2 4.4 4.4 4.4 4.4-2 4.4-4.4-2-4.4-4.4-4.4z"/><path id="Content" d="M54 48h478v298h-478z"/></svg>

<svg xmlns="http://www.w3.org/2000/svg" viewBox="0 0 580 398"><style>.st0{fill:none}.st1{opacity:.2}.st2{fill:#545454}.st3{fill:#333}.st4{fill:#1a1a1a}.st5{fill:#4c7070}.st6{fill:#474747}</style><path class="st0" d="M559.3 390.1H26.5c-11.4 0-20.7-9.2-20.7-20.7V21.2C5.8 9.7 15 .5 26.5.5h532.9c11.4 0 20.7 9.2 20.7 20.7v348.3c-.1 11.3-9.4 20.6-20.8 20.6z"/><path d="M553.1 397.6H20.2c-11.4 0-20.7-9.2-20.7-20.7V28.7C-.5 17.2 8.8 8 20.2 8h532.9c11.4 0 20.7 9.2 20.7 20.7V377c-.1 11.3-9.3 20.6-20.7 20.6z" class="st1"/><path class="st2" d="M559.3 390.1H26.5c-11.4 0-20.7-9.2-20.7-20.7V21.2C5.8 9.7 15 .5 26.5.5h532.9c11.4 0 20.7 9.2 20.7 20.7v348.3c-.1 11.3-9.4 20.6-20.8 20.6z"/><path class="st3" d="M26.5 387.6c-10 0-18.2-8.1-18.2-18.2V21.2C8.3 11.1 16.4 3 26.5 3h532.9c10 0 18.2 8.1 18.2 18.2v348.3c0 10-8.1 18.2-18.2 18.2H26.5z"/><path class="st4" d="M26.5 383.8c-7.9 0-14.4-6.5-14.4-14.4V21.2c0-7.9 6.5-14.4 14.4-14.4h532.9c7.9 0 14.4 6.5 14.4 14.4v348.3c0 7.9-6.5 14.4-14.4 14.4H26.5z"/><path d="M53.6 47h478.6v299.8H53.6z"/><circle class="st5" cx="292.9" cy="26.7" r="2.8"/><path class="st6" d="M292.9 25.4c.7 0 1.3.6 1.3 1.3s-.6 1.3-1.3 1.3-1.3-.6-1.3-1.3.6-1.3 1.3-1.3m0-3.1c-2.4 0-4.4 2-4.4 4.4s2 4.4 4.4 4.4 4.4-2 4.4-4.4-2-4.4-4.4-4.4z"/><path id="Content" d="M54 48h478v298H54z"/></svg>
